X:42
T: Graf und Nonne (Die Nonne)
N: Q0155o
O: Osteuropa, Ungarn, Tata, Tatabanya
R: Ballade, Standesunterschied, vergebliche Werbung, Liebe, Klage, Tod
M: 6/8
L: 1/16
K: G
D2 | G4G2G4B2 | A6A4
DD | B2B2B2d2c2B2 | A6z4
A2 | c2c2c2c2B2A2 | G4A2B4
G2 | D2B2B2B4A2 | G6z4

@@@ Tune index: 1752
